icons/src/scalable/default/status/network-wireless-hardware-disabled-symbolic.svg

<?xml version="1.0" encoding="UTF-8" standalone="no"?>
<svg
   xmlns:dc="http://purl.org/dc/elements/1.1/"
   xmlns:cc="http://creativecommons.org/ns#"
   xmlns:rdf="http://www.w3.org/1999/02/22-rdf-syntax-ns#"
   xmlns:svg="http://www.w3.org/2000/svg"
   xmlns="http://www.w3.org/2000/svg"
   xmlns:sodipodi="http://sodipodi.sourceforge.net/DTD/sodipodi-0.dtd"
   xmlns:inkscape="http://www.inkscape.org/namespaces/inkscape"
   height="16"
   width="16"
   version="1.1"
   id="svg6"
   sodipodi:docname="network-wireless-hardware-disabled-symbolic.svg"
   inkscape:version="1.0.2 (e86c870879, 2021-01-15)">
  <metadata
     id="metadata12">
    <rdf:RDF>
      <cc:Work
         rdf:about="">
        <dc:format>image/svg+xml</dc:format>
        <dc:type
           rdf:resource="http://purl.org/dc/dcmitype/StillImage" />
        <dc:title />
      </cc:Work>
    </rdf:RDF>
  </metadata>
  <defs
     id="defs10" />
  <sodipodi:namedview
     pagecolor="#ffffff"
     bordercolor="#666666"
     borderopacity="1"
     objecttolerance="10"
     gridtolerance="10"
     guidetolerance="10"
     inkscape:pageopacity="0"
     inkscape:pageshadow="2"
     inkscape:window-width="1920"
     inkscape:window-height="1016"
     id="namedview8"
     showgrid="true"
     inkscape:zoom="55"
     inkscape:cx="8"
     inkscape:cy="8"
     inkscape:window-x="0"
     inkscape:window-y="27"
     inkscape:window-maximized="1"
     inkscape:current-layer="svg6"
     inkscape:document-rotation="0">
    <inkscape:grid
       type="xygrid"
       id="grid837" />
  </sodipodi:namedview>
  <g
     color="#000000"
     transform="translate(-1073.003,267)"
     id="g1413">
    <path
       id="path1411"
       style="line-height:normal;font-variant-ligatures:none;font-variant-position:normal;font-variant-caps:normal;font-variant-numeric:normal;font-variant-alternates:normal;font-feature-settings:normal;text-indent:0;text-align:start;text-decoration:none;text-decoration-line:none;text-decoration-style:solid;text-decoration-color:#000000;text-transform:none;shape-padding:0;isolation:auto;mix-blend-mode:normal;marker:none;fill:#bebebe;fill-opacity:1;opacity:0.5"
       d="M 8 2 C 5.39 2 2.7796094 2.8375781 0.59960938 4.5175781 L 0.33398438 4.7226562 L 0.5390625 4.9863281 L 2.0917969 7 L 3.3535156 7 L 1.7714844 4.9472656 C 3.6544844 3.6692656 5.819 2.999 8 3 C 10.181 3 12.343562 3.6721719 14.226562 4.9511719 L 12.644531 7 L 13.908203 7 L 15.664062 4.7265625 L 15.400391 4.5214844 A 12.105 12.105 0 0 0 8 2 z M 4.4042969 10 L 7.9960938 14.658203 L 11.591797 10 L 10.330078 10 L 7.9980469 13.021484 L 5.6679688 10 L 4.4042969 10 z "
       transform="translate(1073.003,-267)" />
  </g>
  <rect
     style="fill:#bebebe;fill-rule:evenodd;stroke:none;stroke-width:2;stroke-linecap:round"
     id="rect2569"
     width="14"
     height="1"
     x="1"
     y="8"
     rx="0"
     ry="0" />
</svg>

<svg version="1.1" viewBox="0 0 16 16" xmlns="http://www.w3.org/2000/svg">
 <g transform="translate(-1073 267)" color="#000000">
  <path transform="translate(1073 -267)" d="m8 2c-2.61 0-5.2204 0.83758-7.4004 2.5176l-0.26562 0.20508 0.20508 0.26367 1.5527 2.0137h1.2617l-1.582-2.0527c1.883-1.278 4.0475-1.9483 6.2285-1.9473 2.181 0 4.3436 0.67217 6.2266 1.9512l-1.582 2.0488h1.2637l1.7559-2.2734-0.26367-0.20508a12.105 12.105 0 0 0-7.4004-2.5215zm-3.5957 8 3.5918 4.6582 3.5957-4.6582h-1.2617l-2.332 3.0215-2.3301-3.0215h-1.2637z" fill="#bebebe" opacity=".5" style="font-feature-settings:normal;font-variant-alternates:normal;font-variant-caps:normal;font-variant-ligatures:none;font-variant-numeric:normal;font-variant-position:normal;isolation:auto;mix-blend-mode:normal;shape-padding:0;text-decoration-color:#000000;text-decoration-line:none;text-decoration-style:solid;text-indent:0;text-transform:none"/>
 </g>
 <rect x="1" y="8" width="14" height="1" rx="0" ry="0" fill="#bebebe" fill-rule="evenodd"/>
</svg>
